X:1
T:Salome, 88.88.88
T:Salome, 88.88.88
T:William Batchelder Bradbury (1816-1868)
T:Public Domain Courtesy of the Cyber Hymnal™
C:William Batchelder Bradbury (1816-1868)
Z:Public Domain
Z:Courtesy of the Cyber Hymnal™
%%score ( 1 2 ) ( 3 4 )
L:1/8
Q:1/4=90
M:3/4
K:Bb
V:1 treble 
V:2 treble 
V:3 bass 
V:4 bass 
V:1
 [DF]2 | D[DF] [EG][DF] [DB][DF] | [Fd]4 [DF]2 | [CE][CF] [EG][EF] [EA][EF] | [Ec]4 [CF]2 | %5
 D[DF] [EG][DF] [DB][DF] | [Fd]3 [^Fd] [Gd][B=e] | [Af][Fc] [FA]2 [=EG]2 | F4 F2 | c4 (cd) | %10
 B2 [DF]2 [DB]2 | c4 (cd) | B3 F [EB][Fd] | (f2 d2) [DB]2 x | ([Ec]3 [DB]) ([Fd][Ec]) | [DB]4 |] %16
V:2
 x2 | D x5 | x6 | x6 | x6 | D x5 | x6 | x6 | F4 F2 | (EE E2) E2 | DD x4 | (EE E2) E2 | (DD D)F x2 | %13
 F4 x3 | x6 | x4 |] %16
V:3
 [B,,B,]2 | [B,,B,][B,,B,] [B,,B,]2 [B,,B,]2 | [B,,B,][B,,B,] [B,,B,]2 [B,,B,]2 | %3
 [F,A,][F,A,] [F,A,]2 [F,A,]2 | [F,A,][F,A,] [F,A,]2 [F,A,]2 | [B,,B,][B,,B,] [B,,B,]2 [B,,B,]2 | %6
 B,B, B,[D,A,] [G,B,][G,B,] | [F,C][A,C] C2 [C,B,]2 | [F,A,]4 [F,A,]2 | %9
 ([F,A,][F,A,] [F,A,]2) [F,A,]2 | ([F,B,][F,B,] [F,B,]2) [F,B,]2 | ([F,A,][F,A,] [F,A,]2) [F,A,]2 | %12
 ([B,,B,][B,,B,] [B,,B,])F, F,B, | (z B,2) B,2 x2 | [F,A,]4 [F,A,]2 | [B,,B,]4 |] %16
V:4
 x2 | x6 | x6 | x6 | x6 | x6 | (B,B, B,) x3 | x2 C2 x2 | x6 | x6 | x6 | x6 | x6 | %13
 (D2 B,,D,) F,B,G, | x6 | x4 |] %16

